apps/projects/public/meta/icon.svg

<svg width="160" height="160" viewBox="0 0 160 160" fill="none" xmlns="http://www.w3.org/2000/svg">
<rect width="160" height="160" fill="url(#paint0_linear)"/>
<g clip-path="url(#clip0)">
<path opacity="0.9" d="M42.2379 95.0162C41.6341 96.2206 41.8693 97.6765 42.8206 98.6287L43.5847 99.3928C45.7926 96.7764 48.3658 93.9371 51.4868 90.817C51.7073 90.5964 51.9344 90.4898 52.1557 90.2864L47.2395 85.3694C44.3815 90.5387 42.7148 94.0706 42.2379 95.0162Z" fill="white"/>
<path opacity="0.9" d="M69.1643 108.494C66.0361 111.623 63.204 114.201 60.6023 116.41L61.6375 117.445C62.5977 118.406 64.0675 118.637 65.276 118.015C66.8946 117.181 69.4402 115.983 74.8438 112.974L69.6957 107.825C69.4923 108.048 69.3857 108.274 69.1643 108.494Z" fill="white"/>
<path opacity="0.5" d="M67.4981 92.4869C65.2398 90.2286 58.8889 92.2533 55.9055 95.2359C45.925 105.216 41.4173 112.292 39.3934 116.47C38.8132 117.668 39.0549 119.101 39.9956 120.041C40.938 120.985 42.3736 121.224 43.5715 120.644C47.6559 118.66 54.6457 114.174 64.745 104.075C68.0254 100.793 69.6441 94.6337 67.5005 92.4893L67.4981 92.4869Z" fill="white"/>
<path d="M36.4208 68.2733L27.5821 77.112C26.5828 78.1114 26.3777 79.6584 27.0857 80.884C27.7766 82.0933 29.2235 82.7093 30.6005 82.3407C35.3775 81.0598 39.5808 80.5186 42.4112 81.2445C46.4379 74.0855 50.7649 67.4953 55.3474 61.509C52.6969 59.8098 43.9379 60.7562 36.4208 68.2733Z" fill="white"/>
<path d="M79.5615 132.998C80.7651 133.607 82.2227 133.372 83.1756 132.418L92.0151 123.579C98.8584 116.734 100.063 107.903 98.5101 105.103C91.8337 110.134 85.0702 114.383 78.7599 117.94C79.1953 120.399 78.9056 122.784 77.8761 129.75C77.6751 131.099 78.3718 132.403 79.5615 132.998Z" fill="white"/>
<path opacity="0.6" d="M88.7081 58.0143C85.0533 61.6699 85.0533 67.6163 88.7081 71.2719C92.3637 74.9275 98.311 74.9275 101.967 71.2719C105.622 67.6163 105.622 61.6699 101.967 58.0143C98.311 54.3587 92.3637 54.3587 88.7081 58.0143Z" fill="white"/>
<path d="M133.15 29.7149C133.037 28.1694 131.807 26.9479 130.266 26.8324C122.591 26.2546 114.946 27.1986 107.453 29.4902C108.017 34.6384 110.68 40.2097 115.226 44.7555C119.826 49.3552 125.549 52.0171 130.789 52.5152C132.807 45.4424 133.764 37.8675 133.15 29.7149Z" fill="white"/>
<path opacity="0.9" d="M110.806 49.1755C105.606 43.9753 102.43 37.7384 101.411 31.6658C82.6458 39.3619 64.682 56.1685 50.4868 79.7786L57.5392 86.831C62.3577 84.8746 68.2074 84.3578 71.9175 88.0671C75.6325 91.783 75.106 97.6301 73.1504 102.442L80.4347 109.726C98.6004 98.7784 119.75 81.5299 128.743 58.5815C122.522 57.6415 116.091 54.4604 110.806 49.1755ZM106.385 75.6917C100.294 81.783 90.381 81.783 84.2889 75.6917C78.1968 69.5995 78.1968 59.6858 84.2889 53.5945C90.381 47.5032 100.294 47.5032 106.385 53.5945C112.477 59.6866 112.477 69.5995 106.385 75.6917Z" fill="white"/>
</g>
<defs>
<linearGradient id="paint0_linear" x1="160" y1="160" x2="0" y2="0" gradientUnits="userSpaceOnUse">
<stop stop-color="#86DBFF"/>
<stop offset="1" stop-color="#5C4EFF"/>
</linearGradient>
<clipPath id="clip0">
<rect width="106.667" height="106.667" fill="white" transform="translate(26.6667 26.6666)"/>
</clipPath>
</defs>
</svg>

<svg width="56" height="56" viewBox="0 0 160 160" fill="none" xmlns="http://www.w3.org/2000/svg"><path fill="url(#prefix__paint0_linear)" d="M0 0h160v160H0z"/><g clip-path="url(#prefix__clip0)" fill="#fff"><path opacity=".9" d="M42.238 95.016a3.128 3.128 0 00.583 3.613l.764.764a136.796 136.796 0 017.902-8.576c.22-.22.447-.327.669-.53l-4.916-4.918c-2.858 5.17-4.525 8.702-5.002 9.647zM69.164 108.494a141.94 141.94 0 01-8.562 7.916l1.036 1.035a3.122 3.122 0 003.638.57c1.619-.834 4.164-2.032 9.568-5.041l-5.148-5.149c-.204.223-.31.449-.532.669z"/><path opacity=".5" d="M67.498 92.487c-2.258-2.258-8.61-.234-11.593 2.749-9.98 9.98-14.488 17.056-16.512 21.234a3.126 3.126 0 004.178 4.174c4.085-1.984 11.075-6.47 21.174-16.569 3.28-3.282 4.9-9.441 2.755-11.586l-.002-.002z"/><path d="M36.42 68.273l-8.838 8.839a3.124 3.124 0 003.018 5.229c4.777-1.281 8.98-1.822 11.811-1.096 4.027-7.16 8.354-13.75 12.936-19.736-2.65-1.7-11.41-.753-18.926 6.764zM79.561 132.998a3.118 3.118 0 003.615-.58l8.84-8.839c6.842-6.845 8.047-15.676 6.494-18.476-6.676 5.031-13.44 9.28-19.75 12.837.435 2.459.146 4.844-.884 11.81a3.118 3.118 0 001.685 3.248z"/><path opacity=".6" d="M88.708 58.014c-3.655 3.656-3.655 9.602 0 13.258 3.656 3.655 9.603 3.655 13.259 0 3.655-3.656 3.655-9.602 0-13.258-3.656-3.655-9.603-3.655-13.259 0z"/><path d="M133.15 29.715a3.121 3.121 0 00-2.884-2.883c-7.675-.577-15.32.367-22.813 2.658.564 5.148 3.227 10.72 7.773 15.265 4.6 4.6 10.323 7.262 15.563 7.76 2.018-7.073 2.975-14.648 2.361-22.8z"/><path opacity=".9" d="M110.806 49.175c-5.2-5.2-8.376-11.437-9.395-17.51C82.646 39.363 64.682 56.17 50.487 79.78l7.052 7.052c4.819-1.956 10.668-2.473 14.379 1.236 3.714 3.716 3.188 9.563 1.232 14.375l7.285 7.284C98.6 98.778 119.75 81.53 128.743 58.581c-6.221-.94-12.652-4.12-17.937-9.406zm-4.421 26.517c-6.091 6.091-16.004 6.091-22.096 0-6.092-6.092-6.092-16.006 0-22.097 6.092-6.092 16.005-6.092 22.096 0 6.092 6.092 6.092 16.005 0 22.097z"/></g><defs><linearGradient id="prefix__paint0_linear" x1="160" y1="160" x2="0" y2="0" gradientUnits="userSpaceOnUse"><stop stop-color="#86DBFF"/><stop offset="1" stop-color="#5C4EFF"/></linearGradient><clipPath id="prefix__clip0"><path fill="#fff" transform="translate(26.667 26.667)" d="M0 0h106.667v106.667H0z"/></clipPath></defs></svg>
